X:95
T:Young May Moon,The. JBs.095
S:Jas.Blackshaw MS, 1837, N.Shropshire
A:North Shropshire
Z:T. Weatherall 2006
M:6/8
L:1/8
Q:3/8=120
R:Jig
K:C
G|c2cc2G|A2GG2G|c2c dcd|e2cc2e|!
f2fe2e|dec BAG|AGF EFG|A2GG2||!
A/B/|c2Gc2G|A2GG2G|cdc def|e2c cde|!
fgf e2e|dec BAG|AGF EFG|A2GG2||!
g|a2a gec|{fg}a2ag2g|a2a gec|Bcd d2g|!
a2ag2f|edc BAG|ABc G2c|{cd}e2cc2|]

